src/icons/svgs/24/smile-rotate-right.svg

<svg width="24" height="24" viewBox="0 0 24 24" fill="none" xmlns="http://www.w3.org/2000/svg">
<path fill-rule="evenodd" clip-rule="evenodd" d="M8.24728 12.0075C8.93816 12.0075 9.49822 11.4475 9.49822 10.7566C9.49822 10.0657 8.93816 9.50565 8.24728 9.50565C7.5564 9.50565 6.99634 10.0657 6.99634 10.7566C6.99634 11.4475 7.5564 12.0075 8.24728 12.0075ZM15.7529 12.0075C16.4438 12.0075 17.0039 11.4475 17.0039 10.7566C17.0039 10.0657 16.4438 9.50565 15.7529 9.50565C15.0621 9.50565 14.502 10.0657 14.502 10.7566C14.502 11.4475 15.0621 12.0075 15.7529 12.0075ZM8.66419 14.3434C8.1119 14.3434 7.66419 14.7911 7.66419 15.3434C7.66419 15.8956 8.1119 16.3434 8.66419 16.3434H15.3359C15.8882 16.3434 16.3359 15.8956 16.3359 15.3434C16.3359 14.7911 15.8882 14.3434 15.3359 14.3434H8.66419Z" fill="black"/>
<path d="M12 3.93621C13.8082 3.93621 15.5209 4.52267 16.9364 5.59002L14.4627 7.88442L21.3754 8.8426L20.7882 2L18.2791 4.335C16.5064 2.90946 14.3136 2.13173 12 2.13173C6.48636 2.13173 2 6.58429 2 12.0564C2 12.337 2.01909 12.6131 2.04273 12.8883L3.84636 12.6086C3.84445 12.581 3.84247 12.5535 3.8405 12.526C3.82934 12.3705 3.81818 12.2151 3.81818 12.0564C3.81818 7.57856 7.48818 3.93621 12 3.93621Z" fill="black"/>
<path d="M20.1818 11.1541H22C22 13.4305 21.9509 13.7373 21.2636 15.8909L19.5309 15.346C20.16 13.3746 20.1818 13.2302 20.1818 11.1541Z" fill="black"/>
<path d="M6.68351 18.3098L5.35715 19.5432C3.82261 17.9173 3.66988 17.6954 2.69352 15.6978L4.32897 14.9102C5.2226 16.7372 5.28351 16.8256 6.68351 18.3098Z" fill="black"/>
<path d="M12.7036 20.1964L12.659 22C10.2818 21.9423 9.90267 21.8701 7.69721 21.0725L8.31994 19.3772C10.3299 20.1035 10.5254 20.1432 12.7036 20.1964Z" fill="black"/>
<path d="M19.7708 18.3495L18.4717 17.0873C16.9453 18.6355 16.7608 18.7672 14.8153 19.7308L15.629 21.345C17.7717 20.283 18.1008 20.0412 19.7708 18.3495Z" fill="black"/>
</svg>

<svg width="24" height="24" viewBox="0 0 24 24" xmlns="http://www.w3.org/2000/svg">
    <path fill-rule="evenodd" clip-rule="evenodd" d="M8.247 12.008a1.25 1.25 0 1 0 0-2.502 1.25 1.25 0 0 0 0 2.502zm7.506 0a1.25 1.25 0 1 0 0-2.502 1.25 1.25 0 0 0 0 2.502zm-7.089 2.335a1 1 0 1 0 0 2h6.672a1 1 0 0 0 0-2H8.664z"/>
    <path d="M12 3.936a8.16 8.16 0 0 1 4.936 1.654l-2.473 2.294 6.912.959L20.788 2 18.28 4.335A9.97 9.97 0 0 0 12 2.132c-5.514 0-10 4.452-10 9.924 0 .281.02.557.043.832l1.803-.28-.006-.082c-.01-.155-.022-.31-.022-.47 0-4.477 3.67-8.12 8.182-8.12zm8.182 7.218H22c0 2.277-.05 2.583-.736 4.737l-1.733-.545c.629-1.971.65-2.116.65-4.192zM6.684 18.31l-1.327 1.233c-1.534-1.626-1.687-1.848-2.663-3.845l1.635-.788c.894 1.827.955 1.916 2.355 3.4zm6.02 1.886L12.659 22c-2.377-.058-2.756-.13-4.962-.927l.623-1.696c2.01.727 2.205.766 4.384.82zm7.066-1.846-1.298-1.263c-1.527 1.549-1.711 1.68-3.657 2.644l.814 1.614c2.143-1.062 2.472-1.304 4.142-2.995z"/>
</svg>
